dist/images/icons/project_icon.svg

<?xml version="1.0" encoding="utf-8"?>
<!-- Generator: Adobe Illustrator 23.0.4, SVG Export Plug-In . SVG Version: 6.00 Build 0)  -->
<svg version="1.1" xmlns="http://www.w3.org/2000/svg" xmlns:xlink="http://www.w3.org/1999/xlink" x="0px" y="0px"
	 viewBox="0 0 64 64" style="enable-background:new 0 0 64 64;" xml:space="preserve">
<style type="text/css">
	.st0{display:none;}
	.st1{display:inline;}
	.st2{fill:#F6F7FC;}
	.st3{fill:#5D7AF6;}
	.st4{fill:#4C6CF6;}
	.st5{fill:#5D58F6;}
	.st6{fill:#2E88F6;}
	.st7{fill:#2EA8F6;}
</style>
<g id="Calque_1" class="st0">
	<g class="st1">
		<path class="st2" d="M32,0c17.7,0,32,14.3,32,32c0,17.7-14.3,32-32,32S0,49.7,0,32C0,14.3,14.3,0,32,0z"/>
		<path class="st3" d="M32,10c12.1,0,22,9.8,22,22c0,12.1-9.8,22-22,22s-22-9.9-22-22C10,19.8,19.8,10,32,10z"/>
		<path class="st4" d="M32,20c6.6,0,12,5.4,12,12s-5.4,12-12,12s-12-5.4-12-12S25.4,20,32,20z"/>
		<path class="st5" d="M34,52c-12.1,0-22-9.9-22-22c0-5.6,2.1-10.6,5.5-14.5c-4.6,4-7.5,9.9-7.5,16.5c0,12.1,9.8,22,22,22
			c6.6,0,12.5-2.9,16.5-7.5C44.6,49.9,39.6,52,34,52z"/>
	</g>
</g>
<g id="Calque_2">
	<path class="st4" d="M24.9,30.4l-23.1,12c-2.5,1.3-2.5,4.9,0,6.2l23.2,11.7c4.3,2.2,9.5,2.2,13.8,0l23.2-11.7
		c2.5-1.3,2.5-4.9,0-6.2l-23.1-12C34.6,28.1,29.4,28.1,24.9,30.4z"/>
	<path class="st6" d="M24.9,17.2l-23.1,12c-2.5,1.3-2.5,4.9,0,6.2l23.2,11.7c4.3,2.2,9.5,2.2,13.8,0l23.2-11.7
		c2.5-1.3,2.5-4.9,0-6.2l-23.1-12C34.6,14.9,29.4,14.9,24.9,17.2z"/>
	<path class="st6" d="M38.9,46.9l16.3-8.2l-16.1-8.4c-4.4-2.3-9.7-2.3-14.2,0L8.8,38.8l16.3,8.2C29.4,49.1,34.6,49.1,38.9,46.9z"/>
	<path class="st7" d="M24.9,3.9l-23.1,12c-2.5,1.3-2.5,4.9,0,6.2l23.2,11.7c4.3,2.2,9.5,2.2,13.8,0L62.1,22c2.5-1.3,2.5-4.9,0-6.2
		l-23.1-12C34.6,1.6,29.4,1.6,24.9,3.9z"/>
	<path class="st7" d="M38.9,33.7l16.3-8.2l-16.1-8.4c-4.4-2.3-9.7-2.3-14.2,0L8.8,25.5l16.3,8.2C29.4,35.9,34.6,35.9,38.9,33.7z"/>
	<path class="st7" d="M38.9,33.7l3.3-1.7l-3.1-1.6c-4.4-2.3-9.7-2.3-14.2,0L21.8,32l3.3,1.7C29.4,35.9,34.6,35.9,38.9,33.7z"/>
</g>
</svg>

<svg xmlns="http://www.w3.org/2000/svg" viewBox="0 0 64 64"><style>.st4{fill:#4c6cf6}.st6{fill:#2e88f6}.st7{fill:#2ea8f6}</style><g id="Calque_2"><path class="st4" d="M24.9 30.4l-23.1 12c-2.5 1.3-2.5 4.9 0 6.2L25 60.3c4.3 2.2 9.5 2.2 13.8 0L62 48.6c2.5-1.3 2.5-4.9 0-6.2l-23.1-12c-4.3-2.3-9.5-2.3-14 0z"/><path class="st6" d="M24.9 17.2l-23.1 12c-2.5 1.3-2.5 4.9 0 6.2L25 47.1c4.3 2.2 9.5 2.2 13.8 0L62 35.4c2.5-1.3 2.5-4.9 0-6.2l-23.1-12c-4.3-2.3-9.5-2.3-14 0z"/><path class="st6" d="M38.9 46.9l16.3-8.2-16.1-8.4c-4.4-2.3-9.7-2.3-14.2 0L8.8 38.8 25.1 47c4.3 2.1 9.5 2.1 13.8-.1z"/><path class="st7" d="M24.9 3.9l-23.1 12c-2.5 1.3-2.5 4.9 0 6.2L25 33.8c4.3 2.2 9.5 2.2 13.8 0L62.1 22c2.5-1.3 2.5-4.9 0-6.2L39 3.8c-4.4-2.2-9.6-2.2-14.1.1z"/><path class="st7" d="M38.9 33.7l16.3-8.2-16.1-8.4c-4.4-2.3-9.7-2.3-14.2 0L8.8 25.5l16.3 8.2c4.3 2.2 9.5 2.2 13.8 0z"/><path class="st7" d="M38.9 33.7l3.3-1.7-3.1-1.6c-4.4-2.3-9.7-2.3-14.2 0L21.8 32l3.3 1.7c4.3 2.2 9.5 2.2 13.8 0z"/></g></svg>
